Catalina-dark/actions/22/insert-link.svg

<svg width="22" height="22" viewBox="3 3 16 16" xmlns="http://www.w3.org/2000/svg">
<defs>
<style id="current-color-scheme" type="text/css">.ColorScheme-Text {
        color:#f2f2f2;
      }</style>
</defs>
<path class="ColorScheme-Text" d="m6 3v2h-3v1h3v2h4v-1h-3v-3h3v-1h-4zm6 0v1h3v3h-3v1h4v-2h3v-1h-3v-2h-4zm-2 2v1h2v-1h-2zm6 9v2h-2v1h2v2h1v-2h2v-1h-2v-2h-1z" fill="currentColor"/>
</svg>

<svg xmlns="http://www.w3.org/2000/svg" viewBox="0 0 22 22">
  <defs id="defs3051">
    <style type="text/css" id="current-color-scheme">
      .ColorScheme-Text {
        color:#f2f2f2;
      }
      </style>
  </defs>
 <path 
     style="fill:currentColor;fill-opacity:1;stroke:none" 
     d="M 6 3 L 6 5 L 3 5 L 3 6 L 6 6 L 6 8 L 10 8 L 10 7 L 7 7 L 7 4 L 10 4 L 10 3 L 6 3 z M 12 3 L 12 4 L 15 4 L 15 7 L 12 7 L 12 8 L 16 8 L 16 6 L 19 6 L 19 5 L 16 5 L 16 3 L 12 3 z M 10 5 L 10 6 L 12 6 L 12 5 L 10 5 z M 16 14 L 16 16 L 14 16 L 14 17 L 16 17 L 16 19 L 17 19 L 17 17 L 19 17 L 19 16 L 17 16 L 17 14 L 16 14 z "
     class="ColorScheme-Text"
     />
</svg>
